src/static/logos/basecamp.svg

<?xml version="1.0" encoding="UTF-8" standalone="no"?>
<svg width="256px" height="213px" viewBox="0 0 256 213" version="1.1" xmlns="http://www.w3.org/2000/svg" xmlns:xlink="http://www.w3.org/1999/xlink" preserveAspectRatio="xMidYMid">
	<g>
		<path d="M128.300525,0 C59.6596401,0 5.88330599,87.3292379 0.795322946,161.089363 C22.33503,198.473015 74.2776064,212.524878 128.300525,212.524878 C182.319971,212.524878 234.266021,198.473015 255.795309,161.089363 C250.707325,87.3292379 196.937937,0 128.300525,0" fill="#B6DEFF"></path>
		<path d="M237.860602,143.519325 C237.860602,143.519325 222.700844,110.744379 207.291028,91.621898 C191.870793,72.492471 173.040046,51.6612613 161.905525,51.6612613 C150.777949,51.6612613 119.670056,106.73998 105.399392,106.73998 C91.1252553,106.73998 83.7068719,81.7723964 66.1576716,81.7723964 C48.6015254,81.7723964 20.7096538,141.980775 20.7096538,141.980775 L18.8203277,152.187998 C18.8203277,152.187998 28.5100702,195.149329 129.884225,195.149329 C231.261853,195.149329 239.364423,152.893022 239.364423,152.893022 L237.860602,143.519325" fill="#66CC66"></path>
		<path d="M106.986565,130.24542 C91.2433382,130.24542 83.1720259,114.710575 78.7960131,105.12155 C74.8610747,96.4841344 74.1803616,82.8455614 63.0145831,82.4635286 C64.1120594,82.0294003 65.1678592,81.7723964 66.1576716,81.7723964 C83.7068719,81.7723964 91.1252553,106.73998 105.399392,106.73998 C119.670056,106.73998 150.777949,51.6612613 161.905525,51.6612613 C164.003232,51.6612613 166.36489,52.4010158 168.927983,53.7172926 C167.031711,53.4672348 164.600593,53.6408861 162.728632,55.5197931 C159.130577,59.117848 126.477187,130.24542 106.986565,130.24542" fill="#17AD49"></path>
	</g>
</svg>

<svg width="256" height="213" xmlns="http://www.w3.org/2000/svg" preserveAspectRatio="xMidYMid"><path d="M128.3 0C59.66 0 5.884 87.33.796 161.09c21.54 37.383 73.483 51.435 127.506 51.435 54.019 0 105.965-14.052 127.494-51.436C250.707 87.33 196.938 0 128.301 0" fill="#B6DEFF"/><path d="M237.86 143.52s-15.16-32.776-30.569-51.898c-15.42-19.13-34.251-39.96-45.385-39.96-11.128 0-42.236 55.078-56.507 55.078-14.274 0-21.692-24.968-39.241-24.968-17.556 0-45.448 60.209-45.448 60.209l-1.89 10.207s9.69 42.961 111.064 42.961c101.378 0 109.48-42.256 109.48-42.256l-1.503-9.374" fill="#6C6"/><path d="M106.987 130.245c-15.744 0-23.815-15.534-28.191-25.123-3.935-8.638-4.616-22.276-15.781-22.658 1.097-.435 2.153-.692 3.143-.692 17.549 0 24.967 24.968 39.241 24.968 14.271 0 45.379-55.079 56.507-55.079 2.097 0 4.459.74 7.022 2.056-1.896-.25-4.327-.076-6.2 1.803-3.597 3.598-36.25 74.725-55.741 74.725" fill="#17AD49"/></svg>
